X:1
T:Title
%%score { ( 1 3 ) | ( 2 4 5 ) }
L:1/8
M:4/4
K:Eb
V:1 treble nm="Grand Piano"
V:3 treble 
V:2 bass 
V:4 bass 
V:5 bass 
V:1
 z4 z2[Q:1/4=116] [EG]>[FA] | [GB]2 [Gc]2 [Gd]2 [Ge]2 | [Ae]4 [Ad]2 F>G | A6 z2 |[M:3/4] G6 | %5
[M:1/4] G>[FA] |[M:4/4] [GB]2 [Gc]2 [Gd]2 [Ge]2 | e4 d2 c>B | =A6[K:bass][K:treble] z2 | %9
[M:3/4] B6 |[M:1/4] B>e |[M:4/4] e2 d2 d2 c2 | [Ac]4 [GB]2 [EG]>[FA] | [GB]2 [Gc]2 [Gd]2 [_Gd]2 | %14
[M:3/4] d6 |[M:1/4] c>B |[M:4/4] e2 [Ge]2 [GB]2 G2 | F4 c2 E>[EF] | %18
[M:35/32] [EG]3/2-[EG]/4- [EG]4- [EG]/4[B,DG]-(3:2:4[B,DG]3/2-[B,DG]/4[A,DF]3/4-[A,DF]/8 | %19
[M:3/4] (3[G,B,E-]3 [CE-]3 [_B,E]3 |] %20
V:2
 z4 z2 [E,B,]>[E,B,] | [E,B,]2 [E,B,]2 [E,B,]2 [E,B,]2 | [F,B,]4 [F,B,]2[K:treble] D>E | %3
 F6[K:bass][K:treble] z2 |[M:3/4] E6[K:bass] |[M:1/4] [E,B,E]>[E,B,] | %6
[M:4/4] [E,B,]2 [E,B,]2 [E,B,]2 [E,B,]2 | [F,B,F]4 [F,B,F]2 E>D | C6 F>E |[M:3/4] D6[K:bass] | %10
[M:1/4][K:treble] [B,G]>[B,G] |[M:4/4] [B,FA]2 [B,FA]2 [B,FA]2 [B,DA]2 | %12
 [E,E]4 [E,E]2 [E,B,]>[E,B,] | [E,B,]2 [E,B,]2 [D,=B,]2 [D,=A,]2 | %14
[M:3/4][K:treble] [G,=B,G]4 [A,_B,]2 |[M:1/4] [A,CD]>[A,B,D] | %16
[M:4/4] [G,B,E]2[K:bass] [E,B,]2 [E,B,]2 [E,B,E]2 | [A,CE]4 [A,CE]2 A,>A, | %18
[M:35/32] B,3/2-B,/4- B,4- B,/4 z2 z3/4 |[M:3/4] (3z3 A,3 G,3 |] %20
V:3
 x8 | x8 | x8 | z2 B,>B, B,2 B>A |[M:3/4] z2 B,>B, B,2 |[M:1/4] x2 |[M:4/4] x8 | x8 | %8
 z2[K:bass] F,>F, F,2[K:treble] d>c |[M:3/4] z2 B,>B, B,2 |[M:1/4] x2 |[M:4/4] x8 | x8 | x8 | %14
[M:3/4] z2 z2 F2 |[M:1/4] x2 |[M:4/4] x8 | x8 |[M:35/32] x35/4 | %19
[M:3/4] z2 z z/ =B,/- B,/4 z/4 z/ z |] %20
V:4
 x8 | x8 | x6[K:treble] x2 | z2[K:bass] B,,>B,, B,,2[K:treble] G>F |[M:3/4] z2[K:bass] E,>E, E,2 | %5
[M:1/4] x2 |[M:4/4] x8 | x8 | x8 |[M:3/4] z2[K:bass] B,,>B,, B,,2 |[M:1/4][K:treble] x2 | %11
[M:4/4] x8 | x8 | x8 |[M:3/4][K:treble] x6 |[M:1/4] x2 |[M:4/4] x2[K:bass] x6 | x8 | %18
[M:35/32] z2 G,,>A,, B,,2 B,,-(3:2:4B,,3/2-B,,/4B,,3/4-B,,/8 |[M:3/4] z2 z z/ A,/- A,/4 z/4 z/ z |] %20
V:5
 x8 | x8 | x6[K:treble] x2 | x2[K:bass] x4[K:treble] x2 |[M:3/4] x2[K:bass] x4 |[M:1/4] x2 | %6
[M:4/4] x8 | x8 | x8 |[M:3/4] x2[K:bass] x4 |[M:1/4][K:treble] x2 |[M:4/4] x8 | x8 | x8 | %14
[M:3/4][K:treble] x6 |[M:1/4] x2 |[M:4/4] x2[K:bass] x6 | x8 |[M:35/32] x35/4 |[M:3/4] E,6 |] %20

